!!!OTL: 83. Zay gezunt
!!!Genre:	Zay gezunt
!!!Mode:	Minor
!!!Listening/dance:	listening
!!!One_Mode:	no
**kern
*thru
*I"P1
*clefG2
*>A
*k[b-e-]
*B-:
=1
!LO:TX:a:i:t=Bb-major
16b-LL
16dd
16dd
16ddJJ
(16ddLL
16cc)
(8qdd/
16cc)
16b-JJ
=2
8ee-L
16ee-L
16ddJJ
4cc
=3
8gL
16aL
16b-JJ
8ccL
16b-L
16aJJ
=4
8b-L
8f
8d
8B-J
=5
16b-LL
16dd
16dd
16ddJJ
16ddLL
16cc
(8qdd/
16cc)
16b-JJ
=6
(8qb-/
8ee-L)
(16ee-L
16ddJJ)
4cc
!!!End-Modulation
*B-:
!!!Begin-Modulation
*B-:
=1
!LO:TX:a:i:t=Bb-major
16b-LL
16dd
16dd
16ddJJ
(16ddLL
16cc)
(8qdd/
16cc)
16b-JJ
=2
8ee-L
16ee-L
16ddJJ
4cc
=3
8gL
16aL
16b-JJ
8ccL
16b-L
16aJJ
=4
8b-L
8f
8d
8B-J
=5
16b-LL
16dd
16dd
16ddJJ
16ddLL
16cc
(8qdd/
16cc)
16b-JJ
=6
(8qb-/
8ee-L)
(16ee-L
16ddJJ)
4cc
!!!End-Modulation
*B-:
!LO:TX:a:t="Segno"
!LO:TX:a:i:t=Bb-major
16aLL
16b-JJ
4cc
8gg
=10
(16ggLL
16ff)
(16ff
16ee-JJ)
8ddtL
16ccL
16b-JJ
=11
16aLL
16b-JJ
4cc
24b-LL
24dd
24ccJJ
=12
8b-L
8f
8d
8B-J
=13
16aLL
16b-JJ
4cc
8gg
=14
(16ggLL
16ff)
(16ff
16ee-JJ)
8ddtL
16ccL
16b-JJ
!!!End-Modulation
*B-:
!LO:TX:a:i:t=Bb-major
=19
8gL
16aL
16b-JJ
(32ccLLL
32ddJ)
16cc
16b-
16aJJ
=20
8b-L
8f
8d
8B-J
!!!End-Modulation
*B-:
!LO:TX:a:i:t=Bb-major
=19
8gL
16aL
16b-JJ
(32ccLLL
32ddJ)
16cc
16b-
16aJJ
=20
8b-L
8f
8d
8B-J
!!!End-Modulation
*-
